apps/www/public/images/career/icons/egoless-light.svg

<svg width="49" height="49" viewBox="0 0 49 49" fill="none" xmlns="http://www.w3.org/2000/svg">
<rect x="0.615234" y="0.583008" width="48" height="48" rx="8" fill="#DDF3E4"/>
<path d="M6.76514 23.174L10.3016 19.6375H17.079" stroke="#92CEAC" stroke-width="2" stroke-miterlimit="10" stroke-linejoin="bevel"/>
<path d="M19.3164 16.9529V11.1276L22.9104 7.53369" stroke="#92CEAC" stroke-width="2" stroke-miterlimit="10" stroke-linejoin="bevel"/>
<path d="M30.2568 10.5677L30.2568 12.6254L25.4849 17.3972" stroke="#92CEAC" stroke-width="2" stroke-miterlimit="10" stroke-linejoin="bevel"/>
<path d="M8.79021 28.7061H6.77979M8.79021 28.7061H6.77979" stroke="#92CEAC" stroke-width="2" stroke-miterlimit="10" stroke-linejoin="bevel"/>
<path d="M23.7925 31.3567L18.4341 36.7147L18.4341 42.3801" stroke="#92CEAC" stroke-width="2" stroke-miterlimit="10" stroke-linejoin="bevel"/>
<path d="M41.8525 29.0264L37.0755 29.0264L34.3086 26.2594" stroke="#92CEAC" stroke-width="2" stroke-miterlimit="10" stroke-linejoin="bevel"/>
<path d="M35.9183 12.9841L28.5356 20.3675" stroke="#92CEAC" stroke-width="2" stroke-miterlimit="10" stroke-linejoin="bevel"/>
<path d="M12.6284 12.696L17.9612 18.0288" stroke="#92CEAC" stroke-width="2" stroke-miterlimit="10" stroke-linejoin="bevel"/>
<path d="M20.1896 28.7061L12.2441 36.6511" stroke="#92CEAC" stroke-width="2" stroke-miterlimit="10" stroke-linejoin="bevel"/>
<path d="M36.3105 36.5022L31.165 31.3567" stroke="#92CEAC" stroke-width="2" stroke-miterlimit="10" stroke-linejoin="bevel"/>
<path d="M28.853 33.7903L28.853 38.7512" stroke="#92CEAC" stroke-width="2" stroke-miterlimit="10" stroke-linejoin="bevel"/>
<path d="M28.853 40.2567L28.853 42.2671M28.853 40.2567L28.853 42.2671" stroke="#92CEAC" stroke-width="2" stroke-miterlimit="10" stroke-linejoin="bevel"/>
<path d="M39.9998 21.5571L42.0103 21.5571M39.9998 21.5571L42.0103 21.5571" stroke="#92CEAC" stroke-width="2" stroke-miterlimit="10" stroke-linejoin="bevel"/>
<path d="M30.2568 7.11213L30.2568 9.12256M30.2568 7.11213L30.2568 9.12256" stroke="#92CEAC" stroke-width="2" stroke-miterlimit="10" stroke-linejoin="bevel"/>
<ellipse cx="10.3704" cy="38.7512" rx="2.95974" ry="2.95974" transform="rotate(135 10.3704 38.7512)" stroke="#92CEAC" stroke-width="2" stroke-miterlimit="10" stroke-linejoin="bevel"/>
<ellipse cx="38.4945" cy="10.6272" rx="2.95974" ry="2.95974" transform="rotate(135 38.4945 10.6272)" stroke="#92CEAC" stroke-width="2" stroke-miterlimit="10" stroke-linejoin="bevel"/>
<ellipse cx="38.4945" cy="39.0022" rx="2.95974" ry="2.95974" transform="rotate(135 38.4945 39.0022)" stroke="#92CEAC" stroke-width="2" stroke-miterlimit="10" stroke-linejoin="bevel"/>
<ellipse cx="10.3704" cy="10.6025" rx="2.95974" ry="2.95974" transform="rotate(135 10.3704 10.6025)" stroke="#92CEAC" stroke-width="2" stroke-miterlimit="10" stroke-linejoin="bevel"/>
<path fill-rule="evenodd" clip-rule="evenodd" d="M25.1287 20.3348V12.3914C25.1287 11.4561 23.9594 11.0327 23.3606 11.7512L11.3713 26.1364C10.577 27.0896 11.2547 28.5367 12.4955 28.5367H24.1023L24.1023 36.4984C24.1023 37.4316 25.2672 37.8562 25.8677 37.1419L37.9754 22.7399C38.7757 21.7879 38.099 20.3348 36.8553 20.3348L25.1287 20.3348Z" fill="#5BB98C"/>
<path d="M25.1287 20.3348H24.1236L25.1287 21.3399V20.3348ZM23.3606 11.7512L24.1327 12.3947V12.3947L23.3606 11.7512ZM11.3713 26.1364L12.1435 26.78L12.1435 26.78L11.3713 26.1364ZM24.1023 28.5367H25.1074L24.1023 27.5316V28.5367ZM24.1023 36.4984H23.0971H24.1023ZM25.8677 37.1419L26.6371 37.7887L25.8677 37.1419ZM37.9754 22.7399L38.7448 23.3867L37.9754 22.7399ZM36.8553 20.3348V21.3399V20.3348ZM26.1339 20.3348V12.3914H24.1236V20.3348H26.1339ZM26.1339 12.3914C26.1339 10.5161 23.7891 9.66706 22.5884 11.1077L24.1327 12.3947C24.1365 12.3901 24.1389 12.3879 24.1395 12.3874C24.1402 12.3868 24.1397 12.3873 24.1381 12.3883C24.1344 12.3906 24.1296 12.3926 24.125 12.3937C24.1208 12.3947 24.119 12.3945 24.1199 12.3945C24.1209 12.3946 24.1236 12.395 24.127 12.3962C24.1304 12.3975 24.1327 12.3989 24.1336 12.3995C24.1343 12.4 24.1327 12.399 24.1301 12.3956C24.1273 12.3918 24.1249 12.3872 24.1235 12.383C24.1229 12.3812 24.1229 12.3805 24.123 12.3814C24.1232 12.3822 24.1236 12.3854 24.1236 12.3914H26.1339ZM22.5884 11.1077L10.5992 25.4929L12.1435 26.78L24.1327 12.3947L22.5884 11.1077ZM10.5992 25.4929C9.25923 27.1007 10.4025 29.5418 12.4955 29.5418V27.5316C12.1069 27.5316 11.8947 27.0784 12.1435 26.78L10.5992 25.4929ZM12.4955 29.5418H24.1023V27.5316H12.4955V29.5418ZM23.0971 28.5367L23.0971 36.4984H25.1074L25.1074 28.5367H23.0971ZM23.0971 36.4984C23.0971 38.3695 25.433 39.2209 26.6371 37.7887L25.0983 36.4951C25.0945 36.4996 25.0921 36.5018 25.0915 36.5023C25.0909 36.5029 25.0913 36.5024 25.0929 36.5014C25.0966 36.4991 25.1014 36.4972 25.106 36.4961C25.1101 36.4951 25.1119 36.4953 25.1111 36.4953C25.11 36.4952 25.1074 36.4948 25.104 36.4936C25.1006 36.4924 25.0984 36.4909 25.0975 36.4903C25.0968 36.4898 25.0984 36.4908 25.1009 36.4942C25.1037 36.498 25.1061 36.5026 25.1074 36.5067C25.108 36.5085 25.1081 36.5092 25.108 36.5083C25.1078 36.5075 25.1074 36.5043 25.1074 36.4984H23.0971ZM26.6371 37.7887L38.7448 23.3867L37.2061 22.0931L25.0983 36.4951L26.6371 37.7887ZM38.7448 23.3867C40.0948 21.7808 38.9532 19.3297 36.8553 19.3297V21.3399C37.2447 21.3399 37.4567 21.7949 37.2061 22.0931L38.7448 23.3867ZM36.8553 19.3297L25.1287 19.3297V21.3399L36.8553 21.3399V19.3297Z" fill="#299764"/>
</svg>

<svg xmlns="http://www.w3.org/2000/svg" width="49" height="49" fill="none" viewBox="0 0 49 49"><rect width="48" height="48" x=".615" y=".583" fill="#ddf3e4" rx="8"/><path stroke="#92ceac" stroke-linejoin="bevel" stroke-miterlimit="10" stroke-width="2" d="m6.765 23.174 3.537-3.536h6.777M19.316 16.953v-5.825l3.594-3.594M30.257 10.568v2.057l-4.772 4.772M8.79 28.706H6.78m2.01 0H6.78M23.793 31.357l-5.359 5.358v5.665M41.853 29.026h-4.778L34.31 26.26M35.918 12.984l-7.382 7.384M12.628 12.696l5.333 5.333M20.19 28.706l-7.946 7.945M36.31 36.502l-5.145-5.145M28.853 33.79v4.961M28.853 40.257v2.01m0-2.01v2.01M40 21.557h2.01m-2.01 0h2.01M30.257 7.112v2.01m0-2.01v2.01"/><circle cx="10.37" cy="38.751" r="2.96" stroke="#92ceac" stroke-linejoin="bevel" stroke-miterlimit="10" stroke-width="2" transform="rotate(135 10.37 38.751)"/><circle cx="38.495" cy="10.627" r="2.96" stroke="#92ceac" stroke-linejoin="bevel" stroke-miterlimit="10" stroke-width="2" transform="rotate(135 38.495 10.627)"/><circle cx="38.495" cy="39.002" r="2.96" stroke="#92ceac" stroke-linejoin="bevel" stroke-miterlimit="10" stroke-width="2" transform="rotate(135 38.495 39.002)"/><circle cx="10.37" cy="10.602" r="2.96" stroke="#92ceac" stroke-linejoin="bevel" stroke-miterlimit="10" stroke-width="2" transform="rotate(135 10.37 10.602)"/><path fill="#5bb98c" fill-rule="evenodd" d="M25.129 20.335V12.39c0-.935-1.17-1.358-1.768-.64L11.37 26.136c-.794.954-.116 2.4 1.124 2.4h11.607v7.962c0 .934 1.165 1.358 1.766.644L37.975 22.74c.8-.952.124-2.405-1.12-2.405z" clip-rule="evenodd"/><path fill="#299764" d="M25.129 20.335h-1.005l1.005 1.005zM23.36 11.75l.772.644zM11.37 26.136l.772.644zm12.731 2.4h1.005l-1.005-1.004zm0 7.962h-1.005zm1.766.644.77.647zM37.975 22.74l.77.647zm-1.12-2.405v1.005zm-10.721 0V12.39h-2.01v7.944zm0-7.944c0-1.875-2.345-2.724-3.546-1.283l1.545 1.287.007-.008-.002.001-.013.006h-.005l.014.005-.004-.003-.006-.013-.001-.002v.01zm-3.546-1.283L10.6 25.493l1.544 1.287 11.99-14.385zM10.6 25.493c-1.34 1.608-.197 4.049 1.896 4.049v-2.01a.458.458 0 0 1-.351-.752zm1.896 4.049h11.607v-2.01H12.496zm10.602-1.005v7.961h2.01v-7.961zm0 7.961c0 1.872 2.336 2.723 3.54 1.29l-1.539-1.293-.006.007.014-.006h.005l-.007-.002-.006-.004.003.004.006.013.001.001v-.01zm3.54 1.29 12.108-14.401-1.539-1.294-12.108 14.402zm12.108-14.401c1.35-1.606.208-4.057-1.89-4.057v2.01c.39 0 .602.455.351.753zm-1.89-4.057H25.13v2.01h11.726z"/></svg>
